X:803
T:Marchioness of Tullybardine, The 
C:Joe Buchanan's Scottish Tome - Page 029.0
I:029 0
R:Strathspey
Z:Carl Allison
L:1/16
M:4/4
K:A=G
ed | {d}c2BA A<AcA | cef eAcA | g2fe dGBG | BdGB g2dB |
c2BA AAcA | ceAf eAcA | BdGB gdB | {B}cAA :|
((3efg) | a2.g.f eAcA | ceAf eAcA | g2fe dGBG | BdGB g2BG |
a2gf eAcA | ceAf eAcA | BdGB g2dB | {B}c2AA ((3efg) |
a2gf eAcA | ceAf eAcA | g2fe dGBG | BdGB g2dB |
c2Bc d2cd | ecef eAcA | BdGB g2dB | {B}c2AA |]
ec | A<AA eAcA | ceGf eAcA | BdGe dGBG | BdGB g2BG |
AAcA eAcA | ceAf eAcA | BdGB g2dB | {B}c(AA) :|
((3efg) | aece AecA | ceAf eAcA | gdBd GdBd | GdBd gBG |
aece AecA | ceAf eAcA | BdGB g2dB | {B}c2AA ((3efg) |
aece AecA | ceAa eAcA | gdBd GdBd | GdBd g2dB |
{B}c2Bc d2cd | ecef eAcA | BdGB g2dB | {B}c2AA |]

